X:1
T:Title
%%score { ( 1 3 ) | ( 2 4 ) }
L:1/8
M:4/4
K:F
V:1 treble nm="Grand Piano"
V:3 treble 
V:2 bass 
V:4 bass 
V:1
 z4 z2[Q:1/4=92] (3A_A=A | B2 E2 A2 [EG]2 | C6 (3A_A=A | B2 E2 F2 G2 |[M:3/4] A6 |[M:1/4] (3c=Bc | %6
[M:4/4] [Be]2 d2 d2 B2 | A6 (3c=Bc | G2 c2 =B2 d2 |[M:5/8] [Ec]- [Ec]3 z |[M:3/8] c=Bc | %11
[M:4/4] e4 z4 | c4 z4 | B4 z4 | [CFA]4 z [Ac][_A=B][G_B] | [FA]2 [Fc]2 [Af]2 [CFc]2 | [Fd]4 z4 | %17
 c4 z4[Q:1/4=81][Q:1/4=91][Q:1/4=89][Q:1/4=88][Q:1/4=86][Q:1/4=85][Q:1/4=83][Q:1/4=82][Q:1/4=79][Q:1/4=78][Q:1/4=76][Q:1/4=75][Q:1/4=73][Q:1/4=72][Q:1/4=70] | %18
[M:3/4] F6 |] %19
V:2
 z4 z2 (3[F,CF][F,=B,F][F,CF] | [G,CE]2 [C,B,C]2 [E,CE]2 [C,B,]2 | %2
 [F,A,]6[K:treble] (3[F,CF][F,=B,F][F,CF] | [G,CE]2 [B,C]2 [A,C]2 [G,CE]2 |[M:3/4] [F,CF]6 | %5
[M:1/4] (3[F,A,F][F,_A,F][F,=A,F] |[M:4/4] [G,C]2 [B,EG]2 [B,EG]2 [G,CE]2 | %7
 [F,CF]6 (3[F,A,F][F,_A,F][F,=A,F] | [G,CE]2 [G,EG]2 [G,DF]2 [G,=B,F]2 | %9
[M:5/8][K:bass] [C,G,]- [C,G,]3 z |[M:3/8][K:treble] A_A=A |[M:4/4] B4[K:bass] z4[K:treble] | %12
 A4[K:bass] z4[K:treble] | G4[K:bass] z4 | F,D,C,A,, F,,[C,C][D,D][E,E] | %15
 [F,C]2 [F,A,]2 [F,C]2 A,2 | B,G,F,D, B,,[K:treble]dcB | A4[K:bass] z4 | %18
[M:3/4] [F,A,C][F,A,] [F,B,][F,B,] [F,,F,]2 |] %19
V:3
 x8 | x8 | x8 | x8 |[M:3/4] x6 |[M:1/4] x2 |[M:4/4] x8 | x8 | x8 |[M:5/8] x5 |[M:3/8] x3 | %11
[M:4/4] z CCC CdBd | z FED CAGA | z CED C[CE][CF][CEG] | x8 | x8 | z B,B,B, B,fed | %17
 z FED C[FA][EB]E |[M:3/4] z C D^C [A,=C]2 |] %19
V:4
 x8 | x8 | x6[K:treble] x2 | x8 |[M:3/4] x6 |[M:1/4] x2 |[M:4/4] x8 | x8 | x8 |[M:5/8][K:bass] x5 | %10
[M:3/8][K:treble] x3 |[M:4/4] z[K:bass] C,C,C, C,[K:treble]BGB | z[K:bass] F,F,F, F,[K:treble]FEF | %13
 z[K:bass] C,E,D, C,B,A,G, | x8 | x8 | x5[K:treble] x3 | z[K:bass] F,E,D, C,[C,C][C,C][C,B,C] | %18
[M:3/4] x6 |] %19

